X:1
T:Death and Transfiguration (Opus 24)
T:Death and Transfiguration (Opus 24)
T:Tod und Verklärung (1888-89)
T:Richard STRAUSS (11/06-1864 to 08/09-1949)
C:Richard STRAUSS (11/06-1864 to 0809-1949
%%score ( 1 2 3 ) 4
L:1/8
Q:1/4=50
M:4/4
K:Eb
V:1 bass nm="Violoncello"
V:2 bass 
V:3 bass 
V:4 bass nm="Violoncello" snm="Vc."
V:1
 z8 | z8 | z8 | z8 | z8 | z8 | z4 z2"^con sord."!pp! C,2- | !>!C,6 C,2- | !>!C,6- C,2 | z8 | z8 | %11
 z8 | z4 z2 (E,2 | !>!F,6) (E,2 | !>!F,6) F,2- |"^A"!>(! F,6 z2!>)! | z8 | z8 | z8 | %19
 z4 z2!pp! (_C2 | !>!_B,6) (_C2 | !>!B,6) =B,2- | B,6 z2 | z8 |"^pizz."!pp! [=A,,^F,] z z2 z4 | %25
 z8 | [B,,G,] z z2 z4 | z8 |"^B" [_C,A,]2 z2 z4 | z8 | z8 | z8 |[K:tenor]"^arco""_div."!pp! _F8 | %33
 (G6!>(! A2- | A2)!>)! z2 z4 |[K:bass] z8 |"^pizz."!pp! C,2 z2 z4 | z8 | z8 | z8 | z8 | z8 | z8 | %43
 z8 | z4!pp! z2"^arco""_div." (C,2 | ^F,6) (C,2 | ^F,6) G,2- | G,6!<(! (^F,2!<)! | =F,8- | %49
!>(! F,8)!>)! | z8 | z8 | z!<(! ((=A,2 ^A,2 =B,2 _D!<)! |!>(! C8- | C4))!>)! z4 | z8 | z8 | z8 | %58
 z8 | z8 | z8 | z8 | z8 | z4"^div."!pp! F,,4- | F,,8- | %65
"^poco\nrit.\n" F,,6"^pizz."[Q:1/4=144]"^Allegro molto agitato (144 bpm)"!ff![Q:1/4=144] !>!C,,2 | %66
[M:4/4]"^arco" z3/2 (!>!C/ _D4)"^" z2 |"^senza sord" z4!ff! z (=E,,2 ^^F,,- | %68
 F,,^G,,) z2 z (=E,,2 ^^F,,- | F,,^G,,) z2 z (=E,, ^^F,,^G,, | ^C,4) z (=E,,- (3E,,^^F,,^G,, | %71
 ^C,)(^D,- D,^B,, (3C,)(D,B,, (3C,=E,^F, | ^G,2) (!>!=A,6- | A,4 ^A,4 | =B,2) z2 (C4 |"_dim." D8- | %76
 D4!p! G,4) |"^E" z4 z!p!!<(! (G,,2 ^A,,-!<)! |!>(! A,,=B,,)!>)! z2 z (G,,!<(! ^A,,=B,,!<)! | %79
 D,4) z (G,, ^A,,=B,, | D,)"_cresc."(!>!_E,- E,^C, (3D,)(E,C, (3!>!D,F,G, | A,2) z2!>(! !>!=B,4- | %82
 B,2!>)! z2!p! z!<(! (G,, ^A,,=B,,!<)! | D,4) z (G,,"_cresc." ^A,,=B,, | %84
 D,)(!>!E,- E,^C, (3D,)(E,C, (3!>!D,F,G, | A,2) z2!>(! (!>!=E4!>)! | F2) z2 z!mf! (G,, ^A,,=B,, | %87
 D,)(!>!E,- E,^C, (3D,)"_cresc."(E,C, (3!>!D,F,G, | _A,2 =B,2) z (G,, ^A,,=B,,) | %89
 (3(!>!D,E,^C, (3D,F,G, A,)(=B,, D,E,) | (3(F,G,E, (3F,A,B, =B,2- (3B,).D,.E, | %91
 (F,2- (3F,_G,=G,) (A,2- (3A,=A,B,) | (=B,>C) (D>E)[K:tenor] (F>G) (A>_B) |!ff! =B z z2 z4 | z8 | %95
[K:bass]"^F"!ff! !>!C,2 !>!E,2 z2 (3=B,,C,D, | !>!E,2 !>!^F,2 z2 =A,>A, | =B,6 G,2- | %98
 G, G,2 G,2 G,3 | .F,/.F,/.=E,/.E,/ !/!F,"_dim."!/!_E, !/!F,!/!=D, !/!F,!/!_D, | %100
!p! !//!F,6!f! (_G,2 | .F,/).F,/.=E,/.E,/ !/!F,!/!_E, !/!F,!/!=D, !/!F,!/!_D, | %102
 F,2 z2[K:tenor]!mf! (^G,2 =A,2 |!<(! C2 F>G!<)! =A2) z2 | %104
!f! !>!C/C/=B,/B,/ !/!C"_dim."!/!_B, !/!C!/!=A, !/!C!/!_A, |!>(! !//!C4!>)! C z!f! (B,2- | %106
 B,2 =A,2 D2 ^F>G) |"_dim." (=A8 |!p! B) z z2[K:bass]!f! (B,4- | B,=A,_A,G,) B,4- | B,8- | %111
"^G" B, z z2!f! (!>!B,4- | B,=A,_A,G,) B,4- |!>(! (B,8!>)! | A,) z z2!f! (C4- | %115
 C"_cresc."=B,_B,"^♭"A, C4 | =B,) z z2"_marc. - - - - -" !>!D,2 !>!=E,2 | z2 (3D,=E,F, =A,4- | %118
 A,2 !>!=B,2 !>!C2 z2 | !>!C2 !>!_D2 z2 C2 |!ff! EE- (3EEE- EE- (3EEE- | EE- (3EEE- EC- (3CCC- | %122
 CC- (3CCC- C z (C2 |"^H" G,) z!ff! G, z G, z[K:tenor] z3/2 (!>!B/ | %124
 =A/^F/C/D/ =F/E/C/B,/ =A,/D/C/A,/[K:bass] ^F,/D,/C,/=A,,/ | %125
 G,,/) z/ z G, z G, z[K:tenor] z3/2 (!>!B/ | %126
 =A/^F/C/D/ =F/E/C/B,/ =A,/D/C/A,/[K:bass] ^F,/D,/C,/=A,,/) | %127
!ff! (G,,"_espr."=A,, B,,2- B,,D, _D,2) | (C,6 F,2) | (B,,C, _D,2- D,F, _F,2) | (E,6 A,2) | %131
"_espress.""^molto agitato" (=A,B, C2- CE D2- | D)[K:tenor](G^F=A d2 c2 | =B4)!<(! (_B2 =A2)!<)! | %134
!>(! (!>!_A6 G2)!>)! |"^I"!f! (=A,B, C2 CE D2- | D)(G^F=A d2 c2 | %137
 B2) z/!mf! (G/=A/G/) z/ (B,/C/B,/) z/ (G,/=A,/G,/) | %138
 z/ (G,/=A,/G,/) z/ (E/F/E/) z/"_cresc." (C/D/C/) z/ (G,/=A,/G,/) | %139
 z/ (=B,/C/B,/) z/ (B,/C/B,/) z/ (_B,/C/B,/) z/ (B,/C/B,/) | %140
[K:bass] z/ (=A,/B,/A,/) z/ (A,/B,/A,/) z/ (_A,/B,/A,/) z/ (A,/B,/A,/) | %141
 z/ (G,/A,/G,/) z/ (G,/A,/G,/) z/ (_G,/A,/G,/ E) z |!ff! (F,,=G,, A,,2- A,,C, B,,2) | %143
 (_D,E, F,2- F,B, A,2- | A,)(_E _D2- D)(G F2- | F)(B A2- (3A)!>!F_D (3A,F,!>!_D, | %146
"^K"!ff! !>!C,2 !>!E,2 z2 (3=B,,C,D, | !>!E,2 !>!^F,2"_cresc." z2 =A,>A, | %148
!ff! G,4"_molto agitato" (G,2 =A,2) | !>!B,4 !>!=B,4 | !>!C6 =A,2 | !>!=B,4 !>!C4 | !>!_D6 B,2 | %153
 !>!C4 !>!=D4 | !>!=E4"_dim." (=E,4 | F,8) |"_cresc." (^F,G, =A,2- A,D C2) | (=A,B, C2- C=F E2) | %158
[K:tenor] (CD E2- EG ^F2- | F)(B =A2- A)(d c2) |!ff! !//!_A4 !//!A4 | !//!A4 !//!A4 | %162
 A2"^poco rit" F,2"_espr." (B,2 C2 | D2 d2 c4) |"^a tempo"!ff! _c/_C/C/C/ !//![D,C]6 | %165
 !//![D,_C]4 !//![D,C]4 | [D,B,]2"^rit." B,,2"_espr." (F,2 G,2 | A,2 A2 G4) | %168
"^L" !//![Fd]4"^a tempo" !//![Fd]4 | [Fd]2 z2 z4 | %170
"^poco a poco calando" !//![A,F]4"_dim." !//![A,F]4 | [A,F]2 z2!ff!"_espr."!<(! (=B3 c)!<)! | %172
 (!>!c6 _B2- |!>(! _B2) (B4 =A2!>)! |!p! _A2)"^molto\nrit. \n" z2 z4 | z8 |[K:bass] (B,,8- | %177
"^dim." B,,8 |!pp! =A,,2) z2 z4 | z8 |!ppp!"^pizz." [D,,=A,,^F,]2 z2 z4 | z8 | z8 | z8 | z8 || %185
[K:G]"^Meno mosso, sempre alla breve." D,8- | D,8- | D,8- | D,8 | G,8- | G,8 | G,,8- | G,,8- | %193
 G,,4 z4 | z8 | z8 | z8 | z8 | z8 | z8 | z8 | %201
"^pizz."!ppp! E,2 z2[K:tenor]"^Solo"!p! (B,3"_senza espr." B | A4 G4 | =F4 E4) | (A4 G4 | %205
 =F2) z2 z4 | z8 | z8 | z8 | z8 | z8 | z8 |"^Tutti  non div.""_cal." D,8 |"^M""^a tempo"!pp! D,8- | %214
 D,8- | D,8- | D,8 | D,8- | D,8- | D,8- | D,8 | G,,8- | G,,8 |"_dim." G,,8- | G,,8 | %225
"^N"!ppp! D,8- | D,8- | D,8- | D,8 | z8 | z4[K:tenor]!mf! !>!=F2 !>!G2 | %231
 z2!<(! (3.=F.G._A!<)! (c4- | c6"_poco rit\ncresc.\n" _c2) | _B8- || %234
[K:Eb]"_Etwas breiter" B z z2[K:bass]!f!"^pizz." G,2 B,2 | E2 D2 G,2 z2 | %236
"^arco"!f! [G,,D,]4 [G,,D,]4 | [G,,G,]4 [C,G,]4 | F,,2 z2"^pizz."!f! C2 =E2 | F2 _E2 A,2 z2 | %240
"^arco"!f! E,4 [E,C]4 | ([E,B,-]4 [D,B,]2)"^pizz." A,2 | [G,B,]2 z2 z2 A,2 | %243
 [G,B,]2 z2 z2"^arco" B,,2 | E,2 _D,2 _G,2"^pizz." _C2 |"^O" B,2 z2 z2 _C2 | %246
 B,2 z2 z2"^arco" _D,2 | _G,2 F,2 B,2"^pizz." _D2 | %248
"_poco string." [C,,A,,F,C]2 z2 z2"^arco""^" (F,>!f!F | E2 D2) (_D2 C2 | %250
 E2) z2 z2"_cresc." (A,>A | G2 ^F2) (=E2 _E2 |!ff! D2) z2 z4 | z8 | %254
 z4"^" z2[K:tenor]!ff![Q:1/2=80] (^D>^d |[K:C]"_appassionato" ^c4 B4) | (^A4 ^G4 | %257
 ^F2) z2[K:bass] (^D,4 | ^C,4 ^F,4) | (B,4 ^A,4) | ^G,8 | %261
"^P""_espr." (3(^C,E,^F, ^G,2- (3G,^A,^B, C2- | C)(^G, (3^A,^B,^C) (^D2 E2) | ^F8 | %264
[K:tenor] (3(^C^^C^D E2- (3E^G^F E2) | (3(^FG^G =A2- A)(^A- (3A^cB | =A ^G2 ^F) (=E ^D2 ^C | %267
 B,>)(^^F, (3^G,B,^D) (E3 ^F) | (3(^GA^A B2- (3B)!<(!(^d^c B2)!<)! | (B2 ^C2) z4 | z8 | %271
[K:bass]"^a tempo"!p! (C,4 G,4) | (E,4 C,4 | F,>)[K:tenor](B,!<(! (3CF_A!<)!!>(! c4- | c4)!>)! z4 | %275
"^Q"!mf! D3"_espr." (F _E^F GA | _B3)[K:treble]!<(! (G A=B cd)!<)! |!>(! (_e2 _E2)!>)! z4 | %278
[K:bass]!f! ^G,3"_espr." (G, A,^B, ^C^D | E3) (^G,!<(! A,^B, ^C^D!<)! | %280
 ^F E2)[K:tenor] (^C ^DE ^F^G) |!ff! (B2 ^A4) _B2- |!>(! B2 (!>!_B4 =A)!>)! z | %283
[K:bass]"^molto appassionato"!f! (3(^F,G,^G, A,2- A,)(^A,- (3A,^CB, | %284
 =A,3)!<(! (=A, =B,^C DE)!<)! | (^F6 E2 | D>)(A,[K:tenor]"_cresc." (3_B,DF) _B4- | %287
 B>(_B, (3=B,^D^F) =B4 |[K:treble]"^R"!ff! (3(^GA^A B2- B)(!>!^B- (3B^d^c | %289
 =B>)(^A, (3B,^D^F) (=AB ^cd | e)(^G- (3GA^A B)(!>!^B- (3B^d^c | =B>)(^A, (3B,^D^F) (=A2 ^GF) | %292
 !>!E4 !>!^D4 | !>!=D4 !>!^C4 |[K:bass] !>!=F,8- | F,2 z2 z4 | %296
!ff! !///!!>!F,4!>(! !///!!>!F,4!>)! |!<(! !///!!>!F,4 !///!!>!F,4!<)! | %298
"^molto appassionato"!ff! !>!E,4 !>!^D,4 |!<(! !>!=D,4 !>!^C,4!<)! | %300
"^S" !///!!>!F,4!>(! !///!F,4!>)! | !///!!>!F,4!<(! !///!F,4!<)! | !///!!>!F,4!>(! !///!F,4!>)! | %303
 !///!!>!F,4!<(! !///!F,4!<)! | !///!!>!_F,4!>(! !///!F,4!>)! |[M:1/2]!<(! !///!F,4!<)! | %306
[M:4/4] !///!!>!_F,4 !///!F,4 |[M:1/2] !///!_F,2 F,2 | %308
[M:4/4]!ff! (3(_E,,F,,^F,, G,,2- (3G,,_B,,_A,, G,,2) | (3(_E,,F,,^F,, G,,2- (3G,,_B,,C, _D,2) | %310
 (3(_E,,F,,^F,, G,,2- (3G,,_B,,_A,, G,,2) | (3(_E,,F,,^F,, G,,2- (3G,,_B,,C, _D,2) | %312
 (3(_E,,F,,^F,, G,,2- (3G,,_B,,_A,, G,,2) | (3(_E,,F,,^F,, G,,2- (3G,,_B,,C, _D,2) | %314
 (3(_E,,F,,^F,, G,,2- (3G,,_B,,C, _D,2) | %315
"^T"!ff! (3(_E,,F,,^F,, (3G,,_B,,_A,,)"_poco stringendo" (3(G,,A,,=A,, (3B,,_D,C,) | %316
 (3(_B,,=B,,C, (3_D,F,=E,) (3(_E,F,^F, (3G,_B,_A,) | %317
 (3(G,_A,=A, (3_B,_DC)[K:tenor] (3(_B,F_E (3_D)(_B_A | %318
 (3GF_E) (3(=DF_E (3_D_B,G,)[K:bass] (3(_E,_D,_B,,) |"^Tempo1" ([_A,,-_E,]8 | %320
"_accel." [A,,_F,]6)"^a tempo" ([_A,,-_E,]2 |"_accel." [A,,_F,]6)"^a tempo" ([_A,,-_E,]2 | %322
"_dim." [A,,_F,]6)"^div." (_A,2- |"^cal." A,4 G,2!p! F,2) | z8 |!p!"^a tempo" (F,,8 | G,,8) | %327
 (F,,4 G,,4 | _A,,6)!mf! (_A2 | G2 F4 _E2) |[K:tenor]!<(! (D/_E/F/E/!<)!!>(! !>!D4 F2)!>)! | %331
!<(! (D/_E/F/E/!<)!!>(! !>!D4 _A2)!>)! |"_cresc." (F4 =E2)!ff!"^breit" =E,2 | %333
"_non div." ([E,A,]2 [D,B,]2 [E,^C]2 [E^c]2 |"_accel." [^DB]6)"^a tempo" ([E,^C]2 | %335
"_accel." [^D,B,]6)[K:bass]"^a tempo\ndim.\n" (^G,,2 | ^F,,4"_cal." ^E,,4) | %337
"^U""^a tempo"!mf! ^F,,8- | F,,8 | (^F,,4 ^G,,4) |"_espr. poco string."({/A,,} A,4- A,^G,=G,^F,) | %341
!<(! (A,6!<)! ^G,2) | (=C4- CB,_B,A,) |!>(! (C6!>)! =B,2) |"^V"!mf! E8- | E6"_cresc." (G,>G | %346
 ^F2 ^E2 =E2 ^D2) | (=D4 ^C/)(^G,/A,/B,/ ^C/D/E/^F/ | ^G2) z2 z4 |!f! (E4- E^D=D^C | %350
 ^G2) z2 z/ (^D/^^C/D/) z/ (E/D/E/) | (^F4- F^E=E^D | %352
 ^G2)"^allargando""_cresc." (D,>E,) (!>!E,2 D,2) | z2 (D,>E,) (!>!E,2 D,2) | %354
"^a tempo" !//!_D,4 !//!D,4 |"^sehr breit" !//!D,6 D,2 |[K:tenor]!<(! (_EF G2 G(c _B2))!<)! | %357
!ff! !//!d4 !//!_d4 |"^poco string.""_dim." !//!^c4 !/!c !//!d2 !/!=B | %359
 !/!B !//!c2 !//!=A2 !//!_B2 !/!=B | %360
"^poco a poco piu calando"!p! !/!B!/!c !/!A"_dim." !//!_G2 !//!F2 !/!_D | %361
 !/!_D !//!C2 !//!A,2 !//!_G,2 F,/F,/- | F,/F,F,F,F,/- (3:2:2F, F,2 (3:2:2F,2 F,- | %363
"^W" F, F,2 F,2 (F,!pp! E,) z | z8 | %365
[K:bass] z4 z2"_con sord.""^Tempo der Einleitung Largo" (!>!A,,2 | C,8- | C,6) z2 | z8 | %369
 z4!pp! z2 (!>!G,,2 | _B,,8- | B,,6) z2 | z8 | z8 | z8 | z8 | %376
[Q:1/4=144]"^Allegro molto agitato" z4 z2!f! z3/2 ([C,E,]/ | %377
 [_D,F,]2) z3/2"_cresc." ([=B,^D]/ [C=E]2) z3/2!ff! (A,/ | G,2) !>!_E,2 z2 (3=B,,C,D, | %379
 !>!_E,2 !>!G,2 z2"_cresc." ^F,>F, |!fff! G,4 (G,2 =A,2) | !>!_B,4 !>!=B,4 | !>!C6 =A,2 | %383
 !>!=B,4 !>!C4 | !>!_D6 _B,2 | !>!C4 !>!=D4 | !>!=E4 (!>!E,4 | F,8) | %388
"^X" (^F,G, =A,2-!ff! A,D C2) | (=A,_B, C2- C=F _E2) | (^F,G,"_allargando" =A,2- A,D C2) | %391
 (^F,G, =A,2- A,D) (C2- | C=B,_B,A,)"_molto dim" C4- | %393
 C/(C/B,/C/) z/ (_E/D/E/)[K:tenor] z/ (^F/^E/F/) z/ (F/E/F/ | %394
[Q:1/4=114]"^Moderato" A/) z/ z z2[K:bass] z4 |"^pizz."!p! C,,2 z2 z4 | C,,2 z2 z4 | %397
 C,,2 z2 G,,2 z2 | z4"^1" G,,2 z2 | z4"^2" G,,2 z2 | z4"^3" G,,2 z2 | z4"^4" G,,2 z2 | %402
 z4"^5" G,,2 z2 | z4"^6" G,,2 z2 | z4"^7" G,,2 z2 | z4"^8" G,,2 z2 | z4"^9" G,,2 z2 | %407
 z4"^10" G,,2 z2 | z4 z2!p!"^arco" (G,,>G, | F,2 E,2 D,2) z2 | z4 z2 (D,>D | C2 B,2 A,2) G,2 | %412
 z4 z2 (G,>G | F2 E2 D2 C2 | B,2) z2 z4 | z8 | z4 z2!p! (D,>D |"^Y" C2 B,2 A,2) G,2 | %418
 F,2 z2 z2"_poco" (G,>G |"_cresc." F2 E2 D2 C2 | B,2) z2 z2 (D,>D) | %421
 (3(CB,A, (3G,DC (3B,GF[K:tenor] (3EDB | d2) z2!p! G4- |!<(! G8-!<)! | G6[K:bass]!p! (D,>D) | %425
 (C/B,/A,/G,/ D/C/B,/G/ F4- |!>(! F6)!>)! z2 | z8 | z8 | z8 | z4 z2[K:tenor]!pp! (E2 | A8) | %432
 (_B4 A2 _A2) | G6"_espr." (E2 | G2 F2 C2 E2 | D6) (^C2 | E2 D2 A,2 =C2 | B,6)"_espr." G,2 | %438
 (C2 D2 E2) (c2 | A3 G ^F4) | (C2 D2 E2) (c2 | c4- cB A2) | G8- | G8 | G,8 | (C,2 D,2 E,2 E2 | %446
 D6) (E,2 | F,2 G,2 A,2 A2 | G8) |!>(! G,6!>)!!p! G,2 |"^Z""_espr." (E,2 G,2 C2[K:tenor] c2 | %451
 G6) G2- | G8 | z4 z2!p! A,2 |"_espr." (^F,2 A,2 D2 d2 | A6) A2- |!>(! A8!>)! | %457
 z4 z2!mf!"^espr." B,2 | (^G,2 B,2 E2 ^G2) | (^F4 =F4) | (A,2 C2 F2 A2) | (^G4 ^F4) | %462
 (G,2 _B,2 _E2) (_B2 | A8) |"^Aa" (_B,,2 C,2 D,2 D2) | (C4 _B,4) | (_A,,2 _B,,2 C,2 C2) | %467
 (_B,4 _A,4) | !///![=E,C]4"^1" !///![E,C]4 | !///![E,C]4"^2" !///![E,C]4 | %470
 !///![E,C]4"^3" !///![E,C]4 | !///![E,C]4"^4" !///![E,C]4 | !///![D,B,]4 !///![D,B,]4 | %473
 !///![G,,G,]4 !///![G,,G,]4 | !///![G,,D,]4"^1" !///![G,,D,]4 | !///![G,,D,]4"^2" !///![G,,D,]4 | %476
 !///![G,,D,]4"^3" !///![G,,D,]4 | !///![G,,D,]4"^4" !///![G,,D,]4 | %478
"^Bb" !///![C,,G,,]4 !///![C,,G,,]4 |"^dim." !///![C,,G,,]4 [C,,G,,]2!p! G,,2 | E,2 F,2!>(! G,4- | %481
 G,6!>)! z2 | ([_A,_E]8- | [A,E]8 | [G,-=E]4 [G,E]2) z2 | z8 |!pp! [A,E]8- | ([A,E-]8 | %488
"^Cc" [G,E-]8) | E2 (C,2 D,2 E,2- | E,2) (C2 D2 E2- | E6)[K:treble]"_espr." (e2 | d4 c4- | c8-) | %494
 c8- | c8 | c2 z2 z4 |"^Lento"!pp! [E,C]8- | !fermata![E,C]8 |] %499
V:2
 x8 | x8 | x8 | x8 | x8 | z"_Timp." C, (3z C,C, z C, (3z C,C, | z C, (3z C,C, z C, x2 | x8 | x8 | %9
 x8 | x8 | x8 | x8 | x8 | x8 | x8 | x8 | x8 | x8 | x8 | x8 | x8 | x8 | x8 | x8 | x8 | x8 | x8 | %28
 x8 | x8 | x8 | x8 |[K:tenor] x8 | x8 | x8 |[K:bass] x8 | x8 | x8 | x8 | x8 | x8 | x8 | x8 | x8 | %44
 x8 | x8 | x8 | x8 | x8 | x8 | x8 | x8 | x8 | x8 | x8 | x8 | x8 | x8 | x8 | x8 | x8 | x8 | x8 | %63
 x8 | x8 | x8 |[M:4/4] x8 | x8 | x8 | x8 | x8 | x8 | x8 | x8 | x8 | x8 | x8 | x8 | x8 | x8 | x8 | %81
 x8 | x8 | x8 | x8 | x8 | x8 | x8 | x8 | x8 | x8 | x8 | x4[K:tenor] x4 | x8 | x8 |[K:bass] x8 | %96
 x8 | x8 | x8 | x8 | x8 | x8 | x4[K:tenor] x4 | x8 | x8 | x8 | x8 | x8 | x4[K:bass] x4 | x8 | x8 | %111
 x8 | x8 | x8 | x8 | x8 | x8 | x8 | x8 | x8 | x8 | x8 | x8 | x6[K:tenor] x2 | x6[K:bass] x2 | %125
 x6[K:tenor] x2 | x6[K:bass] x2 | x8 | x8 | x8 | x8 | x8 | x[K:tenor] x7 | x8 | x8 | x8 | x8 | x8 | %138
 x8 | x8 |[K:bass] x8 | x8 | x8 | x8 | x8 | x8 | x8 | x8 | x8 | x8 | x8 | x8 | x8 | x8 | x8 | x8 | %156
 x8 | x8 |[K:tenor] x8 | x8 | x8 | x8 | x8 | x8 | x8 | x8 | x8 | x8 | x8 | x8 | x8 | x8 | x8 | x8 | %174
 x8 | x8 |[K:bass] x8 | x8 | x8 | x8 | x8 | x8 | x8 | x8 | x8 ||[K:G] x8 | x8 | x8 | x8 | x8 | x8 | %191
 x8 | x8 | x8 | x8 | x8 | x8 | x8 | x8 | x8 | x8 | x4[K:tenor] x4 | x8 | x8 | x8 | x8 | x8 | x8 | %208
 x8 | x8 | x8 | x8 | x8 | x8 | x8 | x8 | x8 | x8 | x8 | x8 | x8 | x8 | x8 | x8 | x8 | x8 | x8 | %227
 x8 | x8 | x8 | x4[K:tenor] x4 | x8 | x8 | x8 ||[K:Eb] x4[K:bass] x4 | x8 | x8 | x8 | x8 | x8 | %240
 x8 | x8 | x8 | x8 | x8 | x8 | x8 | x8 | x8 | x8 | x8 | x8 | x8 | x8 | x6[K:tenor] x2 |[K:C] x8 | %256
 x8 | x4[K:bass] x4 | x8 | x8 | x8 | x8 | x8 | x8 |[K:tenor] x8 | x8 | x8 | x8 | x8 | x8 | x8 | %271
[K:bass] x8 | x8 | x3/2[K:tenor] x13/2 | x8 | x8 | x3[K:treble] x5 | x8 |[K:bass] x8 | x8 | %280
 x3[K:tenor] x5 | x8 | x8 |[K:bass] x8 | x8 | x8 | x2[K:tenor] x6 | x8 |[K:treble] x8 | x8 | x8 | %291
 x8 | x8 | x8 |[K:bass] x8 | x8 | x8 | x8 | x8 | x8 | x8 | x8 | x8 | x8 | x8 |[M:1/2] x4 | %306
[M:4/4] x8 |[M:1/2] x4 |[M:4/4] x8 | x8 | x8 | x8 | x8 | x8 | x8 | x8 | x8 | x4[K:tenor] x4 | %318
 x6[K:bass] x2 | x8 | x8 | x8 | x8 | x8 | x8 | x8 | x8 | x8 | x8 | x8 |[K:tenor] x8 | x8 | x8 | %333
 x8 | x8 | x6[K:bass] x2 | x8 | x8 | x8 | x8 | x8 | x8 | x8 | x8 | x8 | x8 | x8 | x8 | x8 | x8 | %350
 x8 | x8 | x8 | x8 | x8 | x8 |[K:tenor] x8 | x8 | x8 | x8 | x8 | x8 | x8 | x8 | x8 |[K:bass] x8 | %366
 x8 | x8 | x8 | x8 | x8 | x8 | x8 | x8 | x8 | x8 | x8 | x8 | x8 | x8 | x8 | x8 | x8 | x8 | x8 | %385
 x8 | x8 | x8 | x8 | x8 | x8 | x8 | x8 | x4[K:tenor] x4 | x4[K:bass] x4 | x8 | x8 | x8 | x8 | x8 | %400
 x8 | x8 | x8 | x8 | x8 | x8 | x8 | x8 | x8 | x8 | x8 | x8 | x8 | x8 | x8 | x8 | x8 | x8 | x8 | %419
 x8 | x8 | x6[K:tenor] x2 | x8 | x8 | x6[K:bass] x2 | x8 | x8 | x8 | x8 | x8 | x6[K:tenor] x2 | %431
 x8 | x8 | x8 | x8 | x8 | x8 | x8 | x8 | x8 | x8 | x8 | x8 | x8 | x8 | x8 | x8 | x8 | x8 | x8 | %450
 x6[K:tenor] x2 | x8 | x8 | x8 | x8 | x8 | x8 | x8 | x8 | x8 | x8 | x8 | x8 | x8 | x8 | x8 | x8 | %467
 x8 | x8 | x8 | x8 | x8 | x8 | x8 | x8 | x8 | x8 | x8 | x8 | x8 | x8 | x8 | x8 | x8 | x8 | x8 | %486
 x8 | x8 | x8 | x8 | x8 | x6[K:treble] x2 | x8 | x8 | x8 | x8 | x8 | x8 | x8 |] %499
V:3
 x8 | x8 | x8 | x8 | x8 | x8 | z4 z2 (G,,2 | A,,6) (G,,2 | A,,6 G,,2) | x8 | x8 | x8 | x6 (F,,2 | %13
 A,,6) (F,,2 | A,,8) | _C,8- | C,2 z2 z4 | x8 | x8 | x6 (=B,,2 | =E,6) (=B,,2 | =E,8- | E,6) x2 | %23
 x8 | D, x7 | x8 | E, x7 | x8 | [A,,E,]2 x6 | x8 | x8 | x8 |[K:tenor] (B,3 A, G,4) | %33
 (_D3 _C B,2 =B,2 | =C2) x6 |[K:bass] x8 | x8 | x8 | x8 | x8 | x8 | x8 | x8 | x8 | x6 (C,2 | %45
 =B,,6) (C,2 | B,,6) (G,,2 | =A,,6) (D,2 | G,,8- | G,,8) | x8 | x8 | x8 | x8 | x8 | x8 | x8 | x8 | %58
 x8 | x8 | x8 | x8 | x8 | x4 _D,,4- | D,,8- | D,,6 x2 |[M:4/4] x3/2 (!>![E,G,]/ [_F,A,]4) x2 | x8 | %68
 x8 | x8 | x8 | x8 | x8 | x8 | x8 | x8 | x8 | x8 | x8 | x8 | x8 | x8 | x8 | x8 | x8 | x8 | x8 | %87
 x8 | x8 | x8 | x8 | x8 | x4[K:tenor] x4 | x8 | x8 |[K:bass] x8 | x8 | x8 | x8 | x8 | x8 | x8 | %102
 x4[K:tenor] x4 | x8 | x8 | x8 | x8 | x8 | x4[K:bass] x4 | x8 | x8 | x8 | x8 | x8 | x8 | x8 | x8 | %117
 x8 | x8 | x8 | x8 | x8 | x8 | x6[K:tenor] x2 | x6[K:bass] x2 | x6[K:tenor] x2 | x6[K:bass] x2 | %127
 x8 | x8 | x8 | x8 | x8 | x[K:tenor] x7 | x8 | x8 | x8 | x8 | x8 | x8 | x8 |[K:bass] x8 | x8 | x8 | %143
 x8 | x8 | x8 | x8 | x8 | x8 | x8 | x8 | x8 | x8 | x8 | x8 | x8 | x8 | x8 |[K:tenor] x8 | x8 | x8 | %161
 x8 | x8 | x8 | x8 | x8 | x8 | x8 | x8 | x8 | x8 | x8 | x8 | x8 | x8 | x8 |[K:bass] x8 | x8 | x8 | %179
 x8 | x8 | x8 | x8 | x8 | x8 ||[K:G] G,,8- | G,,8- | G,,8- | G,,8 | G,,8- | G,,8 | x8 | x8 | x8 | %194
 x8 | x8 | x8 | x8 | x8 | x8 | x8 | x4[K:tenor] z4 | z8 | z8 | z8 | z8 | x8 | x8 | x8 | x8 | x8 | %211
 x8 | x8 | G,,8- | G,,8- | G,,8- | G,,8 | G,,8- | G,,8- | G,,8- | G,,8 | x8 | x8 | x8 | x8 | %225
 G,,8- | G,,8- | G,,8- | G,,8 | x8 | x4[K:tenor] x4 | x8 | x8 | x8 ||[K:Eb] x4[K:bass] x4 | x8 | %236
 x8 | x8 | x8 | x8 | x8 | x8 | x8 | x8 | x8 | x8 | x8 | x8 | x8 | x8 | x8 | x8 | x8 | x8 | %254
 x6[K:tenor] x2 |[K:C] x8 | x8 | x4[K:bass] x4 | x8 | x8 | x8 | x8 | x8 | x8 |[K:tenor] x8 | x8 | %266
 x8 | x8 | x8 | x8 | x8 |[K:bass] x8 | x8 | x3/2[K:tenor] x13/2 | x8 | x8 | x3[K:treble] x5 | x8 | %278
[K:bass] x8 | x8 | x3[K:tenor] x5 | x8 | x8 |[K:bass] x8 | x8 | x8 | x2[K:tenor] x6 | x8 | %288
[K:treble] x8 | x8 | x8 | x8 | x8 | x8 |[K:bass] x8 | x8 | x8 | x8 | x8 | x8 | x8 | x8 | x8 | x8 | %304
 x8 |[M:1/2] x4 |[M:4/4] x8 |[M:1/2] x4 |[M:4/4] x8 | x8 | x8 | x8 | x8 | x8 | x8 | x8 | x8 | %317
 x4[K:tenor] x4 | x6[K:bass] x2 | x8 | x8 | x8 | x6 (_A,,2- | A,,4 G,,2 F,,2) | x8 | x8 | x8 | x8 | %328
 x8 | x8 |[K:tenor] x8 | x8 | x8 | x8 | x8 | x6[K:bass] x2 | x8 | x8 | x8 | x8 | x8 | x8 | x8 | %343
 x8 | x8 | x8 | x8 | x8 | x8 | x8 | x8 | x8 | x8 | x8 | x8 | x8 |[K:tenor] x8 | x8 | x8 | x8 | x8 | %361
 x8 | x8 | x8 | x8 |[K:bass] x8 | x8 | x8 | x8 | x8 | x8 | x8 | x8 | x8 | x8 | x8 | x15/2 (A,,/ | %377
 _B,,2) x3/2 (^G,/ A,2) x2 | x8 | x8 | x8 | x8 | x8 | x8 | x8 | x8 | x8 | x8 | x8 | x8 | x8 | x8 | %392
 x8 | x4[K:tenor] x4 | x4[K:bass] x4 | x8 | x8 | x8 | x8 | x8 | x8 | x8 | x8 | x8 | x8 | x8 | x8 | %407
 x8 | x8 | x8 | x8 | x8 | x8 | x8 | x8 | x8 | x8 | x8 | x8 | x8 | x8 | x6[K:tenor] x2 | x8 | x8 | %424
 x6[K:bass] x2 | x8 | x8 | x8 | x8 | x8 | x6[K:tenor] (C2 | D8) | (_D4 C4) | C6 E2 | x8 | x8 | x8 | %437
 x8 | x8 | x8 | x8 | x8 | x8 | x8 | x8 | x8 | x8 | x8 | x8 | x8 | x6[K:tenor] x2 | x8 | x8 | x8 | %454
 x8 | x8 | x8 | x8 | x8 | x8 | x8 | x8 | x8 | x8 | x8 | x8 | x8 | x8 | x8 | x8 | x8 | x8 | x8 | %473
 x8 | x8 | x8 | x8 | x8 | x8 | x8 | x8 | x8 | x8 | x8 | x8 | x8 | x8 | x8 | x8 | x8 | x8 | %491
 x6[K:treble] x2 | x8 | x8 | x8 | x8 | x8 | x8 | x8 |] %499
V:4
 z8 | z8 | z8 | z8 | z8 | z8 | z8 | z8 | z8 | z8 | z8 | z8 | z8 | z8 | z8 | z8 | z8 | z8 | z8 | %19
 z8 | z8 | z8 | z8 | z8 | z8 | z8 | z8 | z8 | z8 | z8 | z8 | z8 | z8 | z8 | z8 | z8 | z8 | z8 | %38
 z8 | z8 | z8 | z8 | z8 | z8 | z8 | z8 | z8 | z8 | z8 | z8 | z8 | z8 | z8 | z8 | z8 | z8 | z8 | %57
 z8 | z8 | z8 | z8 | z8 | z8 | z8 | z8 | z8 |[M:4/4] z8 | z8 | z8 | z8 | z8 | z8 | z8 | z8 | z8 | %75
 z8 | z8 | z8 | z8 | z8 | z8 | z8 | z8 | z8 | z8 | z8 | z8 | z8 | z8 | z8 | z8 | z8 | z8 | z8 | %94
 z8 | z8 | z8 | z8 | z8 | z8 | z8 | z8 | z8 | z8 | z8 | z8 | z8 | z8 | z8 | z8 | z8 | z8 | z8 | %113
 z8 | z8 | z8 | z8 | z8 | z8 | z8 | z8 | z8 | z8 | z8 | z8 | z8 | z8 | z8 | z8 | z8 | z8 | z8 | %132
 z8 | z8 | z8 | z8 | z8 | z8 | z8 | z8 | z8 | z8 | z8 | z8 | z8 | z8 | z8 | z8 | z8 | z8 | z8 | %151
 z8 | z8 | z8 | z8 | z8 | z8 | z8 | z8 | z8 | z8 | z8 | z8 | z8 | z8 | z8 | z8 | z8 | z8 | z8 | %170
 z8 | z8 | z8 | z8 | z8 | z8 | z8 | z8 | z8 | z8 | z8 | z8 | z8 | z8 | z8 ||[K:G] z8 | z8 | z8 | %188
 z8 | z8 | z8 | z8 | z8 | z8 | z8 | z8 | z8 | z8 | z8 | z8 | z8 | z8 | z8 | z8 | z8 | z8 | z8 | %207
 z8 | z8 | z8 | z8 | z8 | z8 | z8 | z8 | z8 | z8 | z8 | z8 | z8 | z8 | z8 | z8 | z8 | z8 | z8 | %226
 z8 | z8 | z8 | z8 | z8 | z8 | z8 | z8 ||[K:Eb] z8 | z8 | z8 | z8 | z8 | z8 | z8 | z8 | z8 | z8 | %244
 z8 | z8 | z8 | z8 | z8 | z8 | z8 | z8 | z8 | z8 | z8 |[K:C] z8 | z8 | z8 | z8 | z8 | z8 | z8 | %262
 z8 | z8 | z8 | z8 | z8 | z8 | z8 | z8 | z8 | z8 | z8 | z8 | z8 | z8 | z8 | z8 | z8 | z8 | z8 | %281
 z8 | z8 | z8 | z8 | z8 | z8 | z8 | z8 | z8 | z8 | z8 | z8 | z8 | z8 | z8 | z8 | z8 | z8 | z8 | %300
 z8 | z8 | z8 | z8 | z8 |[M:1/2] z4 |[M:4/4] z8 |[M:1/2] z4 |[M:4/4] z8 | z8 | z8 | z8 | z8 | z8 | %314
 z8 | z8 | z8 | z8 | z8 | z8 | z8 | z8 | z8 | z8 | z8 | z8 | z8 | z8 | z8 | z8 | z8 | z8 | z8 | %333
 z8 | z8 | z8 | z8 | z8 | z8 | z8 | z8 | z8 | z8 | z8 | z8 | z8 | z8 | z8 | z8 | z8 | z8 | z8 | %352
 z8 | z8 | z8 | z8 | z8 | z8 | z8 | z8 | z8 | z8 | z8 | z8 | z8 | z8 | z8 | z8 | z8 | z8 | z8 | %371
 z8 | z8 | z8 | z8 | z8 | z8 | z8 | z8 | z8 | z8 | z8 | z8 | z8 | z8 | z8 | z8 | z8 | z8 | z8 | %390
 z8 | z8 | z8 | z8 | z8 | z8 | z8 | z8 | z8 | z8 | z8 | z8 | z8 | z8 | z8 | z8 | z8 | z8 | z8 | %409
 z8 | z8 | z8 | z8 | z8 | z8 | z8 | z8 | z8 | z8 | z8 | z8 | z8 | z8 | z8 | z8 | z8 | z8 | z8 | %428
 z8 | z8 | z8 | z8 | z8 | z8 | z8 | z8 | z8 | z8 | z8 | z8 | z8 | z8 | z8 | z8 | z8 | z8 | z8 | %447
 z8 | z8 | z8 | z8 | z8 | z8 | z8 | z8 | z8 | z8 | z8 | z8 | z8 | z8 | z8 | z8 | z8 | z8 | z8 | %466
 z8 | z8 | z8 | z8 | z8 | z8 | z8 | z8 | z8 | z8 | z8 | z8 | z8 | z8 | z8 | z8 | z8 | z8 | z8 | %485
 z8 | z8 | z8 | z8 | G,2 (E,,2 G,,2 C,2- | C,2) (E,2 G,2 C2- | C6)[K:treble] e2 | d4 c4- | c8- | %494
 c8- | c8 | c2 z2 z4 |[K:bass]"^Lento" [G,,G,]8- | !fermata![G,,G,]8 |] %499

